src/icons/symbol-numeric.svg

<svg width="16" height="16" xmlns="http://www.w3.org/2000/svg"><path fill-rule="evenodd" clip-rule="evenodd" d="M11 1v4h4v1h-4v4h4v1h-4v4h-1v-4H6v4H5v-4H1v-1h4V6H1V5h4V1h1v4h4V1h1zM6 6v4h4V6H6z"/></svg>

<svg width="16" height="16" viewBox="0 0 16 16" fill="none" xmlns="http://www.w3.org/2000/svg">
<path fill-rule="evenodd" clip-rule="evenodd" d="M11 1V5H15V6H11L11 10H15V11H11V15H10V11H6V15H5V11H1V10H5L5 6H1V5H5V1L6 1V5H10V1L11 1ZM6 6L6 10H10L10 6H6Z" fill="#C5C5C5"/>
</svg>
